X:1
T:A Tale of the Olden Time
T:A Tale of the Olden Time
T:Benn W. J. Trevaldwyn
T:Gerard Moultrie (1829-1885)
T:Public Domain Courtesy of the Cyber Hymnal™
T:Public Domain Courtesy of the Cyber Hymnal™
C:Benn W. J. Trevaldwyn
Z:Public Domain
Z:Courtesy of the Cyber Hymnal™
%%score ( 1 2 ) ( 3 4 )
L:1/8
Q:1/4=105
M:4/4
K:C
V:1 treble 
V:2 treble 
V:3 bass 
V:4 bass 
V:1
 G2"^Solo or Semi-Chorus" | [Ec]2 [GB]>[FA] [EG]2 [G,E]>[G,D] | [G,C]2 [B,D]2 [CE]2 [B,E]>E | %3
w: 1.~I’ll|tell you a tale of the|old- en time, While the|
w: 2.~The|beasts of the mea- dows bowed|down their head A- ll|
w: 3.~O|who are these mas- ters of|an- cient mould? O these|
w: 4.~The|kings of the east i- n|num- ber three, Al- l|
w: 5.~For|all th- e ze- nith is~blaz-|ing with light, And mu-|
 [EA]2 [^GB][Ac] B2 EE | [EA]2 ([EB][Ec]) [Fd]4 ||"^Full" [Ee]3 [Ed] [Fc]2 [FA]2 | G4 [Fc]4 | d8 | %8
w: yule log burns bright, and the|church bells * chime.|Glo- ria in ex-|cel- sis|De-|
w: un- der the moon- light so|soft- ly * shed.|Glo- ria in ex-|cel- sis|De-|
w: are the shep- herds, the lords|of the * fold;|Glo- ria in ex-|cel- sis|De-|
w: wor- ship the Mon- arch of|high de- * gree;|Glo- ria in ex-|cel- sis|De-|
w: sic- al voic- es en- rap-|ture the * night:|Glo- ria in ex-|cel- sis|De-|
 !fermata![Ec]6 ||"^Solo or Semi-Chorus" [EG]2 | G2 [FA][FB] [Ec]2 [GB][FA] | %11
w: o.|There|sate a fair prin- cess in|
w: o.|They|wor- shipped the King of Cre-|
w: o.|They~have|heard from the sky of the|
w: o.|Their|trib- ute they off- er, their|
w: o.|O|this is the car- ol of|
 [EG]2 D[B,A] [CG]2 G2 | B2 [Cc][Gc] d2 (GA) | [GB]2 [^FA]>G G4 |"^Full" [FG]3 [EG] [DG]2 [CG]2 | %15
w: joy on her throne, And|there in her arms her *|In- fant was shown:|Glo- ria in ex-|
w: a- tion there In the|arms of the mo- ther *|so pass- ing fair.|Glo- ria in ex-|
w: birth of their King, They~have|heard all the sky with~the *|har- mo- ny ring.|Glo- ria in ex-|
w: heads they bow, And clear-|er and clear- er is *|e- cho- ing now,|Glo- ria in ex-|
w: peace and good- will From~the|voic- es ce- les- tial,~the *|ze- nith that fill;|Glo- ria in ex-|
 [FA]4 [DG]4 | [Gc]3 [Ec] [Fc]2 [^Fc]2 | [G-e]4 d4 | [Ec]3 [Ec] [GB]2 [FA]2 | ([E-G]4 c4) | d8 | %21
w: cel- sis,|Glo- ria in ex-|cel- sis|Glo- ria in ex-|cel- *|sis|
w: cel- sis,|Glo- ria in ex-|cel- sis|Glo- ria in ex-|cel- *|sis|
w: cel- sis,|Glo- ria in ex-|cel- sis|Glo- ria in ex-|cel- *|sis|
w: cel- sis,|Glo- ria in ex-|cel- sis|Glo- ria in ex-|cel- *|sis|
w: cel- sis,|Glo- ria in ex-|cel- sis|Glo- ria in ex-|cel- *|sis|
 !fermata![Gc]8 |] %22
w: De-|
w: De-|
w: De-|
w: De-|
w: De-|
V:2
 G2 | x8 | x15/2 E/ | x4 (^DE)EE | x8 || x8 | (G2 D2) x4 | (G6 F2) | x6 || x2 | G2 x6 | %11
 x2 D x2 (FE) x | (DG) x (G ^F) G2 x | x7/2 G/ G4 | x8 | x8 | x8 | x4 G2 F2 | x8 | x4 E2 A2 | %20
 (A4 G4) | x8 |] %22
V:3
 G,2 | [C,G,]2 [C,F,]>[C,A,] [C,C]2 [G,B,]>[F,B,] | [E,C]2 [D,G,]2 [C,G,]2 [E,^G,]>[D,G,] | %3
 (A,E)[B,,D][A,,C] ([F,A,][E,^G,])E[DE] | C2 [^G,B,]A, (CB,A,B,) || %5
 [C,CG]3 [C,_B,G] [F,A,C]2 [F,C]2 | ([E,G,-C]2 [F,G,C]2) ([E,G,-C]2 [C,G,E]2) | (C2 B,A, B,4) | %8
 !fermata![C,G,C]6 || [C,C]2 | [E,C]2 [F,C][D,D] [A,C]2 [E,C][F,C] | %11
 [G,C]2 [G,B,][F,G,] [E,G,]2 ([D,B,][C,C]) | (DB,)[E,G,][_E,G,] [D,A,]2 ([=E,G,][C,E]) | %13
 [D,D]2 [D,C]>[G,C] [G,B,]4 | [G,B,]3 [G,C] [F,B,]2 [E,C]2 | [D,B,]4 [F,B,]4 | %16
 [E,C]3 [_B,C] [A,C]2 [_A,C]2 | [G,C]4 [G,B,]4 | [A,C]3 [G,C] [F,C]2 C2 | C4- [A,C]2 [G,E]2 | %20
 [F,-CD-]2 [F,-B,D-][F,A,D] D2 F2 | [C,G,CE]8 |] %22
V:4
 G,2 | x8 | x8 | C,2 x3 E x2 | (CA,)A, =G,4 x || x8 | x8 | [G,,G,]8 | x6 || x2 | x8 | x8 | F,2 x6 | %13
 x8 | x8 | x8 | x8 | x8 | x6 (A,F,) | C2 B,2 x4 | x4 [G,B,]4 | x8 |] %22

